icons/clipboard.svg

<?xml version="1.0" encoding="UTF-8" standalone="no"?>
<!-- Created with Inkscape (http://www.inkscape.org/) -->

<svg
   width="1500mm"
   height="1500mm"
   viewBox="0 0 1500 1500"
   version="1.1"
   id="svg5"
   xml:space="preserve"
   inkscape:export-filename="pleroma.svg"
   inkscape:export-xdpi="96"
   inkscape:export-ydpi="96"
   inkscape:version="1.2.1 (9c6d41e410, 2022-07-14)"
   sodipodi:docname="clipboard.svg"
   xmlns:inkscape="http://www.inkscape.org/namespaces/inkscape"
   xmlns:sodipodi="http://sodipodi.sourceforge.net/DTD/sodipodi-0.dtd"
   xmlns="http://www.w3.org/2000/svg"
   xmlns:svg="http://www.w3.org/2000/svg"><sodipodi:namedview
     id="namedview7"
     pagecolor="#393939"
     bordercolor="#000000"
     borderopacity="0.24705882"
     inkscape:showpageshadow="2"
     inkscape:pageopacity="0"
     inkscape:pagecheckerboard="0"
     inkscape:deskcolor="#3c3c3c"
     inkscape:document-units="mm"
     showgrid="false"
     inkscape:zoom="0.09231464"
     inkscape:cx="1906.5232"
     inkscape:cy="3195.5928"
     inkscape:window-width="1920"
     inkscape:window-height="1009"
     inkscape:window-x="-8"
     inkscape:window-y="-8"
     inkscape:window-maximized="1"
     inkscape:current-layer="layer1" /><defs
     id="defs2" /><g
     inkscape:label="Layer 1"
     inkscape:groupmode="layer"
     id="layer1"><rect
       style="fill:#000000;stroke-width:0.264583"
       id="rect231"
       width="1500"
       height="1500"
       x="-1.4210855e-14"
       y="-5.6843419e-14" /><path
       d="m 642.8571,1392.8572 h 750 V 857.14281 h -348.2144 c -44.3638,0 -80.3571,-35.9933 -80.3571,-80.3571 V 428.57144 H 642.8571 Z M 857.1429,187.50001 v -53.57145 c 0,-14.22989 -12.5559,-26.78569 -26.7858,-26.78569 H 241.07139 c -14.22985,0 -26.78549,12.5558 -26.78549,26.78569 v 53.57145 c 0,14.22989 12.55564,26.7857 26.78549,26.7857 H 830.3571 c 14.2299,0 26.7858,-12.55581 26.7858,-26.7857 z m 214.2856,562.5 h 250.279 L 1071.4285,499.72099 Z M 1500,857.14281 v 562.49999 c 0,44.3638 -35.9934,80.3572 -80.3571,80.3572 H 616.0716 c -44.36383,0 -80.35718,-35.9934 -80.35718,-80.3572 V 1285.7143 H 80.35713 C 35.99335,1285.7143 0,1249.721 0,1205.3571 V 80.35714 C 0,35.99329 35.99335,0 80.35713,0 H 991.0714 c 44.3638,0 80.3571,35.99329 80.3571,80.35714 v 274.55357 c 10.8818,6.69644 20.9264,14.22992 30.134,23.43752 l 341.5178,341.51788 c 31.8081,31.808 56.9197,92.9129 56.9197,137.2767 z"
       id="path432"
       style="fill:#ffffff;stroke-width:0.837053" /></g></svg>

<?xml version="1.0" encoding="UTF-8"?>
<!-- Created with Inkscape (http://www.inkscape.org/) -->
<svg id="svg5" width="1500mm" height="1500mm" version="1.1" viewBox="0 0 1500 1500" xml:space="preserve" xmlns="http://www.w3.org/2000/svg"><g id="layer1"><rect id="rect231" x="-1.4211e-14" y="-5.6843e-14" width="1500" height="1500" stroke-width=".26458"/><path id="path432" d="m642.86 1392.9h750v-535.71h-348.21c-44.364 0-80.357-35.993-80.357-80.357v-348.21h-321.43zm214.29-1205.4v-53.571c0-14.23-12.556-26.786-26.786-26.786h-589.29c-14.23 0-26.785 12.556-26.785 26.786v53.571c0 14.23 12.556 26.786 26.785 26.786h589.29c14.23 0 26.786-12.556 26.786-26.786zm214.29 562.5h250.28l-250.28-250.28zm428.57 107.14v562.5c0 44.364-35.993 80.357-80.357 80.357h-803.57c-44.364 0-80.357-35.993-80.357-80.357v-133.93h-455.36c-44.364 0-80.357-35.993-80.357-80.357v-1125c0-44.364 35.993-80.357 80.357-80.357h910.71c44.364 0 80.357 35.993 80.357 80.357v274.55c10.882 6.6964 20.926 14.23 30.134 23.438l341.52 341.52c31.808 31.808 56.92 92.913 56.92 137.28z" fill="#fff" stroke-width=".83705"/></g></svg>
